X:6023
T:Fred Pidgeon's No. 3
T:Fred Pigeon's No 3
R:Polka
C:Trad.
O:England, Devon
Z:Paul Hardy's Session Tunebook 2015 (see www.paulhardy.net). Creative Commons cc by-nc-sa licenced.
M:4/4
L:1/8
Q:1/4=150
K:G
D2|"G"GFGA BABc|d2 B2 B2 AB|"D"c2 A2 ABcA|F2 D2 D2 D2|"G"GFGA BABc|d2 B2 B2 AB|"Am"c2 A2 "D"F2 D2|"G"G4 G2:||
|:GA|"G"B2 GG G2 G2|G4 GFGA|B2 GG G2 G2|"D"A4 A2 GA|"G"B2 GG G2 F2|"C"E2 c2 c4|"G"d2 cB "D7"A2 B2|"G"G4 G2:|

